svg/system/thumb_down_fill.svg

<?xml version="1.0" encoding="UTF-8"?>
<svg width="24px" height="24px" viewBox="0 0 24 24" version="1.1" xmlns="http://www.w3.org/2000/svg" xmlns:xlink="http://www.w3.org/1999/xlink">
    <title>thumb_down_fill</title>
    <g id="页面-1" stroke="none" stroke-width="1" fill="none" fill-rule="evenodd">
        <g id="System" transform="translate(-528.000000, -144.000000)">
            <g id="thumb_down_fill" transform="translate(528.000000, 144.000000)">
                 <path d="M24,0 L24,24 L0,24 L0,0 L24,0 Z M12.5934901,23.257841 L12.5819402,23.2595131 L12.5108777,23.2950439 L12.4918791,23.2987469 L12.4918791,23.2987469 L12.4767152,23.2950439 L12.4056548,23.2595131 C12.3958229,23.2563662 12.3870493,23.2590235 12.3821421,23.2649074 L12.3780323,23.275831 L12.360941,23.7031097 L12.3658947,23.7234994 L12.3769048,23.7357139 L12.4804777,23.8096931 L12.4953491,23.8136134 L12.4953491,23.8136134 L12.5071152,23.8096931 L12.6106902,23.7357139 L12.6232938,23.7196733 L12.6232938,23.7196733 L12.6266527,23.7031097 L12.609561,23.275831 C12.6075724,23.2657013 12.6010112,23.2592993 12.5934901,23.257841 L12.5934901,23.257841 Z M12.8583906,23.1452862 L12.8445485,23.1473072 L12.6598443,23.2396597 L12.6498822,23.2499052 L12.6498822,23.2499052 L12.6471943,23.2611114 L12.6650943,23.6906389 L12.6699349,23.7034178 L12.6699349,23.7034178 L12.678386,23.7104931 L12.8793402,23.8032389 C12.8914285,23.8068999 12.9022333,23.8029875 12.9078286,23.7952264 L12.9118235,23.7811639 L12.8776777,23.1665331 C12.8752882,23.1545897 12.8674102,23.1470016 12.8583906,23.1452862 L12.8583906,23.1452862 Z M12.1430473,23.1473072 C12.1332178,23.1423925 12.1221763,23.1452606 12.1156365,23.1525954 L12.1099173,23.1665331 L12.0757714,23.7811639 C12.0751323,23.7926639 12.0828099,23.8018602 12.0926481,23.8045676 L12.108256,23.8032389 L12.3092106,23.7104931 L12.3186497,23.7024347 L12.3186497,23.7024347 L12.3225043,23.6906389 L12.340401,23.2611114 L12.337245,23.2485176 L12.337245,23.2485176 L12.3277531,23.2396597 L12.1430473,23.1473072 Z" id="MingCute" fill-rule="nonzero"></path>
                <path d="M9.50003,21.5 C10.8556,21.5 11.7941,20.6479 12.3945,19.4472 C12.9168,18.4025 12.9661,17.1474 12.9915,16 L17.8264,16 C19.5815,16 20.9618,14.4999 20.8161,12.7509 L20.455,8.41868 C20.1527,4.79064 17.1199,2 13.4792,2 L11.9667,2 C9.99963,2 8.17139,2.81832 6.89975,4.17854 C6.45237,4.06181 5.98314,3.99988 5.5,3.99988 C4.39178,3.99988 3.47158,4.62092 2.87596,5.60831 C2.2969,6.56825 2,7.89344 2,9.49988 C2,11.1063 2.2969,12.4315 2.87596,13.3914 C3.47158,14.3788 4.39178,14.9999 5.5,14.9999 C5.78149,14.9999 6.07864,14.9504 6.37732,14.8664 C6.83483,16.0656 7.16111,17.3027 7.00687,18.6008 C6.83517,20.0458 8.01551,21.5 9.50003,21.5 Z" id="路径" fill="#09244B"></path>
            </g>
        </g>
    </g>
</svg>

<svg xmlns="http://www.w3.org/2000/svg" width="24" height="24"><g fill="none" fill-rule="evenodd"><path d="M24 0v24H0V0h24ZM12.593 23.258l-.011.002-.071.035-.02.004-.014-.004-.071-.035c-.01-.004-.019-.001-.024.005l-.004.01-.017.428.005.02.01.013.104.074.015.004.012-.004.104-.074.012-.016.004-.017-.017-.427c-.002-.01-.009-.017-.017-.018Zm.265-.113-.013.002-.185.093-.01.01-.003.011.018.43.005.012.008.007.201.093c.012.004.023 0 .029-.008l.004-.014-.034-.614c-.003-.012-.01-.02-.02-.022Zm-.715.002a.023.023 0 0 0-.027.006l-.006.014-.034.614c0 .012.007.02.017.024l.015-.002.201-.093.01-.008.004-.011.017-.43-.003-.012-.01-.01-.184-.092Z"/><path fill="#09244B" d="M9.5 21.5c1.356 0 2.294-.852 2.895-2.053.522-1.044.571-2.3.597-3.447h4.834a3 3 0 0 0 2.99-3.25l-.361-4.331A7 7 0 0 0 13.479 2h-1.512A6.937 6.937 0 0 0 6.9 4.179a5.538 5.538 0 0 0-1.4-.18c-1.108 0-2.028.622-2.624 1.61-.58.96-.876 2.284-.876 3.89 0 1.607.297 2.932.876 3.892C3.472 14.38 4.392 15 5.5 15c.281 0 .579-.05.877-.134.458 1.2.784 2.437.63 3.735C6.835 20.046 8.016 21.5 9.5 21.5Z"/></g></svg>
